X: 2008
T: Minuet Dolphin.
%R: minuet
B: Henry Playford "Apollo's Banquet", London 1687 (5th Edition)
F: https://archive.org/details/apollosbanquetco01rugg
Z: 2017 John Chambers <jc:trillian.mit.edu>
M: 3/2
L: 1/8
K: Dm
% - - - - - - - - - -
|:\
d2e4 f3ed2 | a2g4 agfedc |\
d2e4 f3ed2 | a2^g4 a6 ::\
a2g4 c'3ba2 | g2a4 b3agf |
g2e4 f3ga2 | bag3f f6 |\
a2b3a g3fe2 | a2d3e ^c3=BA2 |\
f2^f3(e/f/) g2fea2 | gfe3d d6 |]
% - - - - - - - - - -

%%sep 1 1 500
%%sep 1 1 500

